usr/share/icons/biglinux-icons-material/scalable/apps/disk-check.svg

<svg xmlns="http://www.w3.org/2000/svg" xml:space="preserve" width="24" height="24" version="1"><defs><clipPath id="b" clipPathUnits="userSpaceOnUse"><path d="M0 0h19v19H0Z"/></clipPath><clipPath id="c" clipPathUnits="userSpaceOnUse"><path d="M0 0h19v19H0Z"/></clipPath><radialGradient id="a" cx="0" cy="0" r="1" fx="0" fy="0" gradientTransform="matrix(0 16.5 -16.5 0 9 .75)" gradientUnits="userSpaceOnUse" spreadMethod="pad"><stop offset="0" style="stop-opacity:1;stop-color:#a4a4a4"/><stop offset="1" style="stop-opacity:1;stop-color:#626262"/></radialGradient></defs><path d="M7.195.836c.09 0 .176-.012.258-.035a23.86 23.86 0 0 1 3.231.008 10.26 10.26 0 0 1 2.836.636c1.519.625 2.558 1.711 3.121 3.254.316.93.507 1.887.566 2.867a21.227 21.227 0 0 1-.086 3.696 8.976 8.976 0 0 1-.672 2.488c-.637 1.383-1.672 2.336-3.101 2.859a11.693 11.693 0 0 1-3.575.618 15.998 15.998 0 0 1-4.089-.309c-2.481-.551-4.016-2.066-4.594-4.543a14.244 14.244 0 0 1-.336-3.383c-.027-1.215.101-2.41.387-3.59.609-2.312 2.078-3.746 4.406-4.3A10.27 10.27 0 0 1 7.195.836Z" style="fill:url(#a);fill-rule:evenodd;stroke:none" transform="matrix(1.33333 0 0 1.33333 0 0)"/><g clip-path="url(#b)" opacity=".75" transform="matrix(1.33333 0 0 1.33333 0 0)"><path d="M14.516 9a5.525 5.525 0 0 0-.414-2.113 5.548 5.548 0 0 0-1.196-1.793 5.548 5.548 0 0 0-1.793-1.196A5.45 5.45 0 0 0 9 3.484a5.45 5.45 0 0 0-2.113.414 5.548 5.548 0 0 0-1.793 1.196 5.548 5.548 0 0 0-1.196 1.793A5.45 5.45 0 0 0 3.484 9a5.45 5.45 0 0 0 .414 2.113 5.548 5.548 0 0 0 1.196 1.793 5.548 5.548 0 0 0 1.793 1.196A5.525 5.525 0 0 0 9 14.516a5.525 5.525 0 0 0 2.113-.414 5.548 5.548 0 0 0 1.793-1.196 5.548 5.548 0 0 0 1.196-1.793A5.525 5.525 0 0 0 14.516 9ZM11.02 9A2.01 2.01 0 0 1 9 11.02a2.01 2.01 0 0 1-1.43-.59 1.949 1.949 0 0 1-.437-.657A2.01 2.01 0 0 1 6.98 9c0-1.109.821-2.02 2.02-2.02s2.02.93 2.02 2.02z" style="fill:#fa4d6f;fill-opacity:1;fill-rule:nonzero;stroke:none"/></g><g clip-path="url(#c)" opacity=".35" transform="scale(1.33333)"><path d="M9 6.242c-.363 0-.723.07-1.055.207a2.79 2.79 0 0 0-1.496 1.496 2.785 2.785 0 0 0 0 2.11 2.79 2.79 0 0 0 1.496 1.496c.336.137.692.207 1.055.207A2.753 2.753 0 0 0 11.758 9 2.753 2.753 0 0 0 9 6.242Zm0 1.379c.18 0 .359.035.527.102.168.07.321.172.45.3.125.129.226.282.296.45a1.352 1.352 0 0 1 0 1.054c-.07.168-.171.321-.3.45a1.28 1.28 0 0 1-.446.296 1.385 1.385 0 0 1-1.504-.296A1.38 1.38 0 0 1 9 7.621Z" style="fill:#a34456;fill-opacity:1;fill-rule:nonzero;stroke:none"/></g></svg>

<?xml version="1.0" encoding="UTF-8" standalone="no"?>
<svg
   width="24"
   height="24"
   version="1"
   id="svg18497"
   sodipodi:docname="gnome-device-manager.svg"
   inkscape:version="1.3 (0e150ed6c4, 2023-07-21)"
   inkscape:export-filename="disk-check.pdf"
   inkscape:export-xdpi="96"
   inkscape:export-ydpi="96"
   xml:space="preserve"
   xmlns:inkscape="http://www.inkscape.org/namespaces/inkscape"
   xmlns:sodipodi="http://sodipodi.sourceforge.net/DTD/sodipodi-0.dtd"
   xmlns="http://www.w3.org/2000/svg"
   xmlns:svg="http://www.w3.org/2000/svg"><defs
     id="defs18501"><radialGradient
       fx="0"
       fy="0"
       cx="0"
       cy="0"
       r="1"
       gradientUnits="userSpaceOnUse"
       gradientTransform="matrix(0,22.000002,-22.000002,0,11.999545,0.999926)"
       spreadMethod="pad"
       id="radialGradient12763-3"><stop
         style="stop-opacity:1;stop-color:#a4a4a4"
         offset="0"
         id="stop12759-6" /><stop
         style="stop-opacity:1;stop-color:#626262"
         offset="1"
         id="stop12761-7" /></radialGradient><radialGradient
       fx="0"
       fy="0"
       cx="0"
       cy="0"
       r="1"
       gradientUnits="userSpaceOnUse"
       gradientTransform="matrix(0,16.500002,-16.500002,0,8.999659,0.749945)"
       spreadMethod="pad"
       id="radialGradient21049"><stop
         style="stop-opacity:1;stop-color:#a4a4a4"
         offset="0"
         id="stop21045" /><stop
         style="stop-opacity:1;stop-color:#626262"
         offset="1"
         id="stop21047" /></radialGradient><clipPath
       clipPathUnits="userSpaceOnUse"
       id="clipPath21059"><path
         d="M 0,0 H 19 V 19 H 0 Z"
         id="path21057" /></clipPath><clipPath
       clipPathUnits="userSpaceOnUse"
       id="clipPath21075"><path
         d="M 0,0 H 19 V 19 H 0 Z"
         id="path21073" /></clipPath><radialGradient
       fx="0"
       fy="0"
       cx="0"
       cy="0"
       r="1"
       gradientUnits="userSpaceOnUse"
       gradientTransform="matrix(0,16.500002,-16.500002,0,8.999659,0.749945)"
       spreadMethod="pad"
       id="radialGradient21049-7"><stop
         style="stop-opacity:1;stop-color:#a4a4a4"
         offset="0"
         id="stop21045-3" /><stop
         style="stop-opacity:1;stop-color:#626262"
         offset="1"
         id="stop21047-6" /></radialGradient><clipPath
       clipPathUnits="userSpaceOnUse"
       id="clipPath21059-1"><path
         d="M 0,0 H 19 V 19 H 0 Z"
         id="path21057-2" /></clipPath><clipPath
       clipPathUnits="userSpaceOnUse"
       id="clipPath21075-9"><path
         d="M 0,0 H 19 V 19 H 0 Z"
         id="path21073-3" /></clipPath></defs><sodipodi:namedview
     id="namedview18499"
     pagecolor="#ffffff"
     bordercolor="#000000"
     borderopacity="0.25"
     inkscape:showpageshadow="2"
     inkscape:pageopacity="0.0"
     inkscape:pagecheckerboard="0"
     inkscape:deskcolor="#d1d1d1"
     showgrid="false"
     inkscape:zoom="13.25"
     inkscape:cx="26.188679"
     inkscape:cy="16.490566"
     inkscape:window-width="2560"
     inkscape:window-height="998"
     inkscape:window-x="0"
     inkscape:window-y="0"
     inkscape:window-maximized="1"
     inkscape:current-layer="svg18497" /><g
     id="g21037"
     transform="matrix(1.3333333,0,0,1.3333333,-4.5225532e-4,-3.504174e-5)"><g
       id="g21043"><path
         d="m 7.195,0.836 c 0.09,0 0.176,-0.012 0.258,-0.035 1.078,-0.071 2.156,-0.067 3.231,0.008 0.976,0.078 1.921,0.289 2.836,0.636 1.519,0.625 2.558,1.711 3.121,3.254 0.316,0.93 0.507,1.887 0.566,2.867 0.078,1.235 0.051,2.465 -0.086,3.696 -0.105,0.863 -0.328,1.691 -0.672,2.488 -0.637,1.383 -1.672,2.336 -3.101,2.859 C 12.191,17 11,17.207 9.773,17.227 8.398,17.301 7.035,17.195 5.684,16.918 3.203,16.367 1.668,14.852 1.09,12.375 0.844,11.262 0.73,10.133 0.754,8.992 0.727,7.777 0.855,6.582 1.141,5.402 1.75,3.09 3.219,1.656 5.547,1.102 6.09,0.969 6.641,0.879 7.195,0.836 Z"
         style="fill:url(#radialGradient21049-7);fill-rule:evenodd;stroke:none"
         id="path21051" /></g></g><g
     id="g21055"
     transform="matrix(1.3333333,0,0,1.3333333,-4.5225532e-4,-3.504174e-5)" /><g
     clip-path="url(#clipPath21059-1)"
     opacity="0.75"
     id="g21065"
     transform="matrix(1.3333333,0,0,1.3333333,1.7629875e-6,1.7629875e-6)"><g
       id="g21063"><path
         d="M 14.516,9 C 14.52,8.273 14.375,7.559 14.102,6.887 13.824,6.215 13.418,5.609 12.906,5.094 12.391,4.582 11.785,4.176 11.113,3.898 10.441,3.621 9.727,3.48 9,3.484 8.273,3.48 7.559,3.621 6.887,3.898 6.215,4.176 5.609,4.582 5.094,5.094 4.582,5.609 4.176,6.215 3.898,6.887 3.621,7.559 3.48,8.273 3.484,9 c -0.004,0.727 0.137,1.441 0.414,2.113 0.278,0.672 0.684,1.278 1.196,1.793 0.515,0.512 1.121,0.918 1.793,1.196 0.672,0.273 1.386,0.418 2.113,0.414 0.727,0.004 1.441,-0.141 2.113,-0.414 0.672,-0.278 1.278,-0.684 1.793,-1.196 0.512,-0.515 0.918,-1.121 1.196,-1.793 C 14.375,10.441 14.52,9.727 14.516,9 Z M 11.02,9 c 0,1.113 -0.887,2.02 -2.02,2.02 -0.266,0 -0.527,-0.051 -0.773,-0.153 C 7.98,10.766 7.758,10.617 7.57,10.43 7.383,10.242 7.23,10.02 7.133,9.773 7.031,9.527 6.98,9.266 6.98,9 6.98,7.891 7.801,6.98 9,6.98 c 1.199,0 2.02,0.93 2.02,2.02 z"
         style="fill:#fa4d6f;fill-opacity:1;fill-rule:nonzero;stroke:none"
         id="path21061" /></g></g><g
     id="g21071"
     transform="matrix(1.3333333,0,0,1.3333333,-4.5225532e-4,-3.504174e-5)" /><g
     clip-path="url(#clipPath21075-9)"
     opacity="0.35"
     id="g21081"
     transform="scale(1.3333333)"><g
       id="g21079"><path
         d="M 9,6.242 C 8.637,6.242 8.277,6.312 7.945,6.449 7.609,6.59 7.305,6.793 7.047,7.051 6.793,7.305 6.59,7.609 6.449,7.945 6.312,8.281 6.242,8.637 6.242,9 c 0,0.363 0.07,0.723 0.207,1.055 0.141,0.336 0.344,0.64 0.602,0.898 0.254,0.254 0.558,0.457 0.894,0.598 0.336,0.137 0.692,0.207 1.055,0.207 0.734,0 1.434,-0.289 1.953,-0.809 C 11.469,10.434 11.758,9.73 11.758,9 11.758,8.266 11.469,7.566 10.949,7.047 10.434,6.531 9.73,6.242 9,6.242 Z m 0,1.379 c 0.18,0 0.359,0.035 0.527,0.102 0.168,0.07 0.321,0.172 0.45,0.3 0.125,0.129 0.226,0.282 0.296,0.45 0.071,0.168 0.106,0.347 0.106,0.527 0,0.18 -0.035,0.359 -0.106,0.527 -0.07,0.168 -0.171,0.321 -0.3,0.45 -0.125,0.128 -0.278,0.23 -0.446,0.296 C 9.359,10.344 9.18,10.379 9,10.379 8.633,10.379 8.281,10.234 8.023,9.977 7.762,9.715 7.617,9.367 7.617,9 7.617,8.633 7.762,8.281 8.023,8.023 8.281,7.766 8.633,7.621 9,7.621 Z"
         style="fill:#a34456;fill-opacity:1;fill-rule:nonzero;stroke:none"
         id="path21077" /></g></g></svg>
